!!!SOCIAL_FUNCTION:	songs of the buffalo society (dream societies)
!!!PDT:	1918

Specific Region: Dakotas, Minnesota, Montana, Nebraska
!!!REG: Dakotas and Montana
!!!LING_GROUP: Siouan
!!!LANG: Tone
!!!OTL@ENG: Buffalo Society Song (c)
!!!ONM: No. 103
**kern
*Imale
*clefG2
*k[f#c#]
*M2/4
*MM112
4f#
8.f#
16f#
=2
8.f#
16f#
4f#
=3
4e
8.e
16e
=4
8.e
16d
4d
=5
4B
8.B
16B
=6||
*M3/4
8.B#
16B#
4..B#
16B#
=7||
*M2/4
4e
8.e
16e
=8
8.e
16d
4d
=9
4B
8.B
16B
=10||
*M3/4
8.B#
16B#
4..B#
16B#
=11||
*M2/4
4B
8.B#
16B#
=12||
*M3/4
8.d
16d
8.d
16B#
4B#
=13
4B#
8.B#
16B#
8.B#
16B#
=14
2.B#
==
*-
!!!CNT: Native American -- Sioux
!!!MRD: 1911/07//-1914///
!!!OCL: Frances Densmore
!!!YOR1: Teton Sioux Music, Bulletin 61,
!!!YOR2: Bureau of American Ethnology, Smithsonian Institution
!!!PPR: Government Printing Office
!!!PPP: Washington, D.C.
!!!PDT: 1918///
!!!ENC: Craig Stuart Sapp
!!!END: 2002/03/25/
!!!EEV: 2002/03/31/
!!!AGN: Society Song/Song of the Buffalo Society
!!!MPN@@SIO: Oku'te
!!!MPN@ENG: Shooter
!!!TXO: Teton Sioux
!!!MLC: Standing Rock Reservation, South Dakota, United States of America
!!!ARL: 45.9/-100.7#
!!!catalog: Catalogue No. 577
!!!PPG: 293
!!!EFL: 103/245
!!!VTS: 3888198889
